Adwaita++/actions/16/align-horizontal-right-out.svg

<svg height="16" viewBox="0 0 16 16" width="16" xmlns="http://www.w3.org/2000/svg">
  <path d="m10 1v14h2v-14zm-9 1v5h7v-5zm2 7v5h5v-5zm10 0v5h2v-5z" fill="#474747"/>
</svg>

<svg xmlns="http://www.w3.org/2000/svg" width="16" height="16" viewBox="0 0 16 16">
 <defs>
  <style id="current-color-scheme" type="text/css">
   .ColorScheme-Text { color:#474747; } .ColorScheme-Highlight { color:#4285f4; }
  </style>
 </defs>
 <path style="fill:currentColor" class="ColorScheme-Text" d="M 10 1 L 10 15 L 12 15 L 12 1 L 10 1 z M 1 2 L 1 7 L 8 7 L 8 2 L 1 2 z M 3 9 L 3 14 L 8 14 L 8 9 L 3 9 z M 13 9 L 13 14 L 15 14 L 15 9 L 13 9 z"/>
</svg>
